src/parts/mouth/Vomit.svg

<svg>
  <g transform="translate(76.000000, 82.000000)">
    <g
      id="Mouth/Vomit"
      transform="translate(2.000000, 52.000000)"
    >
      <defs>
        <path
          id="Vomit-path1"
          d="M34.0082051,12.6020819 C35.1280248,23.0929366 38.2345159,31.9944054 53.9961505,31.9999974 C69.757785,32.0055894 72.9169073,23.0424631 73.9942614,12.5047938 C74.0809675,11.6567158 73.1738581,10.9999965 72.0369872,10.9999965 C65.3505138,10.9999965 62.6703194,12.4951994 53.9894323,12.4999966 C45.3085452,12.5047938 40.7567994,10.9999965 36.0924943,10.9999965 C34.9490269,10.9999965 33.8961688,11.5524868 34.0082051,12.6020819 Z"
        />
        <path
          id="Vomit-path2"
          d="M59.9170416,36 L60,36 C60,39.3137085 62.6862915,42 66,42 C69.3137085,42 72,39.3137085 72,36 L72,35 L72,31 C72,27.6862915 69.3137085,25 66,25 L66,25 L42,25 L42,25 C38.6862915,25 36,27.6862915 36,31 L36,31 L36,35 L36,38 C36,41.3137085 38.6862915,44 42,44 C45.3137085,44 48,41.3137085 48,38 L48,36 L48.0829584,36 C48.5590365,33.1622867 51.0270037,31 54,31 C56.9729963,31 59.4409635,33.1622867 59.9170416,36 Z"
        />
        <filter
          id="filter1"
          x="-1.4%"
          y="-2.6%"
          width="102.8%"
          height="105.3%"
          filterUnits="objectBoundingBox"
        >
          <feOffset
            dx="0"
            dy="-1"
            in="SourceAlpha"
            result="shadowOffsetInner1"
          />
          <feComposite
            in="shadowOffsetInner1"
            in2="SourceAlpha"
            operator="arithmetic"
            k2="-1"
            k3="1"
            result="shadowInnerInner1"
          />
          <feColorMatrix
            values="0 0 0 0 0   0 0 0 0 0   0 0 0 0 0  0 0 0 0.1 0"
            type="matrix"
            in="shadowInnerInner1"
          />
        </filter>
      </defs>
      <mask
        id="Vomit-mask1"
        fill="white"
      >
        <use
          href="#Vomit-path1"
          transform="translate(54.000000, 21.499998) scale(1, -1) translate(-54.000000, -21.499998) "
        />
      </mask>
      <use
        id="Mouth"
        opacity="0.699999988"
        fill="#000000"
        fillRule="evenodd"
        transform="translate(54.000000, 21.499998) scale(1, -1) translate(-54.000000, -21.499998) "
        href="#Vomit-path1"
      />
      <rect
        id="Teeth"
        fill="#FFFFFF"
        fillRule="evenodd"
        mask="url('#Vomit-mask1')"
        x="39"
        y="0"
        width="31"
        height="16"
        rx="5"
      />
      <g id="Vomit-Stuff">
        <use
          fill="#88C553"
          fillRule="evenodd"
          href="#Vomit-path2"
        />
        <use
          fill="black"
          opacity="1"
          filter="url('#filter1')"
          href="#Vomit-path2"
        />
      </g>
    </g>
  </g>
</svg>

<svg>
  <g transform="translate(76 82)">
    <g id="Mouth/Vomit" transform="translate(2 52)">
      <defs>
        <path id="Vomit-path1" d="M34.008 12.602c1.12 10.49 4.227 19.392 19.988 19.398 15.762.006 18.92-8.958 19.998-19.495.087-.848-.82-1.505-1.957-1.505-6.686 0-9.367 1.495-18.048 1.5-8.68.005-13.232-1.5-17.897-1.5-1.143 0-2.196.552-2.084 1.602Z"/>
        <path id="Vomit-path2" d="M59.917 36H60a6 6 0 1 0 12 0v-5a6 6 0 0 0-6-6H42a6 6 0 0 0-6 6v7a6 6 0 1 0 12 0v-2h.083a6.002 6.002 0 0 1 11.834 0Z"/>
        <filter id="filter1" width="102.8%" height="105.3%" x="-1.4%" y="-2.6%" filterUnits="objectBoundingBox">
          <feOffset dy="-1" in="SourceAlpha" result="shadowOffsetInner1"/>
          <feComposite in="shadowOffsetInner1" in2="SourceAlpha" k2="-1" k3="1" operator="arithmetic" result="shadowInnerInner1"/>
          <feColorMatrix in="shadowInnerInner1" values="0 0 0 0 0 0 0 0 0 0 0 0 0 0 0 0 0 0 0.1 0"/>
        </filter>
      </defs>
      <mask id="Vomit-mask1" fill="#fff">
        <use href="#Vomit-path1" transform="matrix(1 0 0 -1 0 43)"/>
      </mask>
      <use id="Mouth" fill="#000" href="#Vomit-path1" opacity=".7" transform="matrix(1 0 0 -1 0 43)"/>
      <rect id="Teeth" width="31" height="16" x="39" y="0" fill="#FFF" mask="url('#Vomit-mask1')" rx="5"/>
      <g id="Vomit-Stuff">
        <use fill="#88C553" href="#Vomit-path2"/>
        <use filter="url('#filter1')" href="#Vomit-path2"/>
      </g>
    </g>
  </g>
</svg>
